packages/foundations/assets/icons/functional/images/environment/water_drop_14.svg

<svg width="14" height="14" viewBox="0 0 14 14" fill="none" xmlns="http://www.w3.org/2000/svg">
<g clip-path="url(#clip0_185_873)">
<path fill-rule="evenodd" clip-rule="evenodd" d="M7 12.5996C4.571 12.5996 2.73962 10.7525 2.73962 8.3029C2.73962 7.3404 3.13119 6.28602 3.90206 5.16996C3.90206 5.16996 5.42062 2.9094 6.11275 1.87034C6.30875 1.57677 6.636 1.4009 6.98862 1.40002H6.99081C7.27081 1.40002 7.53506 1.51071 7.73062 1.70321C7.79012 1.74871 7.84306 1.80427 7.88681 1.87034C8.58025 2.91115 10.1027 5.1774 10.1027 5.1774C10.8688 6.28646 11.2604 7.3404 11.2604 8.30334C11.2604 10.7533 9.429 12.5996 7 12.5996ZM7 3.06296C6.24356 4.19434 5.05881 5.9579 5.05881 5.9579C4.44719 6.84296 4.13919 7.62959 4.13919 8.30246C4.13919 9.98115 5.34231 11.1996 6.99956 11.1996C8.65681 11.1996 9.86037 9.98115 9.86037 8.30246C9.86037 7.62959 9.55281 6.8434 8.946 5.9649C8.94162 5.95834 7.756 4.19434 7 3.06296Z" fill="#1A1C1F"/>
</g>
<defs>
<clipPath id="clip0_185_873">
<rect width="14" height="14" fill="white"/>
</clipPath>
</defs>
</svg>

<svg xmlns="http://www.w3.org/2000/svg" width="14" height="14" fill="none"><g clip-path="url(#a)"><path fill="#1A1C1F" fill-rule="evenodd" d="M7 12.6c-2.429 0-4.26-1.848-4.26-4.297 0-.963.391-2.017 1.162-3.133 0 0 1.519-2.26 2.21-3.3.197-.293.524-.47.877-.47h.002c.28 0 .544.11.74.303q.09.069.156.167c.693 1.041 2.216 3.307 2.216 3.307.766 1.11 1.157 2.163 1.157 3.126 0 2.45-1.831 4.297-4.26 4.297m0-9.537c-.756 1.131-1.941 2.895-1.941 2.895-.612.885-.92 1.672-.92 2.344C4.14 9.982 5.342 11.2 7 11.2c1.658 0 2.861-1.219 2.861-2.898 0-.672-.307-1.459-.914-2.337-.004-.007-1.19-1.77-1.946-2.902" clip-rule="evenodd"/></g><defs><clipPath id="a"><path fill="#fff" d="M0 0h14v14H0z"/></clipPath></defs></svg>
